svg/material-icons/paragliding/materialiconsoutlined/20px.svg

<svg xmlns="http://www.w3.org/2000/svg" width="20" height="20" viewBox="0 0 20 20"><path d="M10 14.25c-.97 0-1.75-.78-1.75-1.75s.78-1.75 1.75-1.75 1.75.78 1.75 1.75-.78 1.75-1.75 1.75zm.5 1.25h-1c-2.21 0-4-1.79-4-4H4c0 2.33 1.45 4.32 3.5 5.12V20h5v-3.38c2.05-.8 3.5-2.79 3.5-5.12h-1.5c0 2.21-1.79 4-4 4zM19 3.48v3.17c0 .61-.68.95-1.19.61-.1-.07-.2-.13-.31-.19L16 10.5h-1.5L13 5.7c-.94-.13-1.95-.2-3-.2s-2.06.07-3 .2l-1.5 4.8H4L2.5 7.05c-.11.07-.21.13-.31.2-.51.34-1.19.01-1.19-.61V3.48C1 1.56 5.03 0 10 0s9 1.56 9 3.48zM5.84 5.89c-.92.19-1.74.43-2.44.72l1.32 3.03 1.12-3.75zm10.76.72c-.7-.29-1.52-.54-2.44-.72l1.13 3.75 1.31-3.03zm.9-3.13c-.16-.53-2.72-1.98-7.5-1.98s-7.34 1.45-7.5 2v1.87C4.4 4.5 7.1 4 10 4c2.9 0 5.6.5 7.5 1.37V3.48z"/></svg>

<svg xmlns="http://www.w3.org/2000/svg" enable-background="new 0 0 20 20" height="20" viewBox="0 0 20 20" width="20"><rect fill="none" height="20" width="20" y="0"/><path d="M10,14.25c-0.97,0-1.75-0.78-1.75-1.75s0.78-1.75,1.75-1.75s1.75,0.78,1.75,1.75S10.97,14.25,10,14.25z M10.5,15.5h-1 c-2.21,0-4-1.79-4-4H4c0,2.33,1.45,4.32,3.5,5.12V20h5v-3.38c2.05-0.8,3.5-2.79,3.5-5.12h-1.5C14.5,13.71,12.71,15.5,10.5,15.5z M19,3.48v3.17c0,0.61-0.68,0.95-1.19,0.61c-0.1-0.07-0.2-0.13-0.31-0.19L16,10.5h-1.5L13,5.7c-0.94-0.13-1.95-0.2-3-0.2 S7.94,5.57,7,5.7l-1.5,4.8H4L2.5,7.05C2.39,7.12,2.29,7.18,2.19,7.25C1.68,7.59,1,7.26,1,6.64V3.48C1,1.56,5.03,0,10,0 S19,1.56,19,3.48z M5.84,5.89C4.92,6.08,4.1,6.32,3.4,6.61l1.32,3.03L5.84,5.89z M16.6,6.61c-0.7-0.29-1.52-0.54-2.44-0.72 l1.13,3.75L16.6,6.61z M17.5,3.48C17.34,2.95,14.78,1.5,10,1.5s-7.34,1.45-7.5,2l0,1.87C4.4,4.5,7.1,4,10,4c2.9,0,5.6,0.5,7.5,1.37 V3.48z"/></svg>
